X: 1554
T: Oynayın Kız Oynayın
C: Cemile Cevher
O: Turkey
F: http://compmusic.upf.edu/node/140
N: rast--turku--devrituran--oynayin_kiz--trabzon
N: makam= rast
N: form= turku
N: usul= devrituran = 7/16
M: 7/16
L: 1/16
K: C _1/4B ^f  
Q: 1/4=360
%%MIDI tuningsystem comma53
G4 G4 dc d4  | d4 d4 d4 c2  | d4 d2 c2 c2 B2 c2  | \
w:  Oy na yın   |  kız_ oy na yın    |  Dur ma *  nın   | 
B4 A4 A4 G2  | G4 G4 dc d4  | 
w:  ne  kâ rı  var    |  Oy na yın   | 
d4 d4 d4 c2  | d4 d2 c2 c2 B2 c2  | B4 A4 A4 G2  | \
w:  kız_ oy na yın    |  Dur ma *  nın   |  ne  kâ rı  var    | 
G4 G4 dc c4  | c4 c4 c4 B2  | 
w:  A  bu  kö  |  yün_ i çi nun    | 
c4 d2 c2 B4 z2  | A4 A4 A4 G2  | G4 G4 dc c4  | \
w:  A ca *  yip   |  be kâ rı  var    |  A  bu  kö  | 
c4 c4 c4 B2  | c4 d2 c2 B4 z2  | 
w:  yün_ i çi nun    |  A ca *  yip   | 
A4 A4 A4 G2  | G4 cB2z A6  | A4 A4 A4 A2  | \
w:  be kâ rı  var    |  De ru *  le   |  del de ru le    | 
G4 cB2z A6  | A4 A4 G4 G2  | 
w:  De ru *  le   |  del de ru le    | 
G4 cB2z A6  | A4 A4 A4 A2  | G4 cB2z A6  | \
w:  De ru *  le   |  del de ru le    |  De ru *  le   | 
A4 A4 G4 G2  | G4 G4 dc d4  | 
w:  del de ru le    |  Oy na yın   | 
d4 d4 d4 c2  | d4 d2 c2 c2 B2 c2  | B4 A4 A4 G2  | \
w:  kız_ oy na yın    |  Dur ma *  nın   |  ne  kâ rı  var    | 
G4 G4 dc d4  | d4 d4 d4 c2  | 
w:  Oy na yın   |  kız_ oy na yın    | 
d4 d2 c2 c2 B2 c2  | B4 A4 A4 G2  | G4 G4 dc c4  | \
w:  Dur ma *  nın   |  ne  kâ rı  var    |  A  bu  kö  | 
c4 c4 c4 B2  | c4 d2 c2 B4 z2  | 
w:  yün_ i çi nun    |  A ca *  yip   | 
A4 A4 A4 G2  | G4 G4 dc c4  | c4 c4 c4 B2  | \
w:  be kâ rı  var    |  A  bu  kö  |  yün_ i çi nun    | 
c4 d2 c2 B4 z2  | A4 A4 A4 G2  | 
w:  A ca *  yip   |  be kâ rı  var    | 
G4 cB2z A6  | A4 A4 A4 A2  | G4 cB2z A6  | \
w:  De ru *  le   |  del de ru le    |  De ru *  le   | 
A4 A4 G4 G2  | G4 cB2z A6  | 
w:  del de ru le    |  De ru *  le   | 
A4 A4 A4 A2  | G4 cB2z A6  | A4 A4 G4 G2  | |


